X: 43145
T: Winnifred
R: reel
M: 4/4
K: Aminor
DE|G2 G>A G>EDE|G2 GA G>EDE|A2 A>B c2 E>F|
G3E D2 EG|A2 AB c2A2|d2 de f2 ed|cAGE D2 EG|A4A2||
cd|e2 ef e>dcA|d2 de f2 e>d|d>cAG E2 DE|G3E D2 EG|
A2 AB c2 cA|d2 d>e f2ed|cAGE D2 EG|A4 A2||

